X:270
T:
R:polska
S:Efter »Florsen» i Burs.
O:Gotland, Burs
M:3/4
L:1/16
K:D
A,2D2 DFAF DFAF|F2A2 Acec Acec|Acef gfge dcBA|cAB^G A4 A,4::
A,2a2 a2ef gfed|cdef gfge dcBA|[DA]2f2 f2ef gfef|
gaba gfed dcBA|DEFG A2A,2 A,2g2|fedc c4 d4:|

